X: 36281
T: Seamus Cooley's
R: jig
M: 6/8
K: Dmajor
f3 d2B|ABA ABd|efe edB|efe ede|
f3 d2B|ABA ABd|efe edB|dfe d2e:|
f3 afd|fef afd|efe edB|efe ede|
f3 afd|fef afd|efe edB|dfe d2e|
f3 afd|fef afd|efe edB|ede a2g|
f3 d2B|ABA ABd|efe edB|dfe d3|

